;FLAVOR:Marlin
;TIME:2607
;Filament used: 7.31656m
;Layer height: 0.6
;MINX:3.133
;MINY:20.209
;MINZ:0.3
;MAXX:109.513
;MAXY:126.553
;MAXZ:6.9
;Generated with Cura_SteamEngine 5.4.0
M140 S60
M105
M190 S60
M104 S200
M105
M109 S200
M82 ;absolute extrusion mode
G1 Z15;
G28;Home
G29;Auto Level
G1 Z5 F5000;Move the platform down 15mm
G92 E0
G92 E0
G1 F1500 E-6.5
;LAYER_COUNT:12
;LAYER:0
M107
G0 F3600 X24.531 Y30.733 Z0.3
;TYPE:SKIRT
G1 F1500 E0
G1 F1800 X28.218 Y28.249 E0.2218
G1 X28.871 Y27.824 E0.26067
G1 X29.531 Y27.449 E0.29854
G1 X32.988 Y25.609 E0.49392
G1 X33.703 Y25.248 E0.53388
G1 X34.849 Y24.747 E0.59628
G1 X37.553 Y23.63 E0.74224
G1 X38.647 Y23.203 E0.80083
G1 X39.697 Y22.88 E0.85563
G1 X43.334 Y21.82 E1.04463
G1 X43.983 Y21.641 E1.07822
G1 X44.639 Y21.499 E1.11171
G1 X48.661 Y20.768 E1.31565
G1 X49.684 Y20.604 E1.36734
G1 X54.121 Y20.258 E1.58938
G1 X54.84 Y20.213 E1.62532
G1 X55.539 Y20.209 E1.66019
G1 X59.629 Y20.311 E1.86431
G1 X60.53 Y20.355 E1.90931
G1 X61.139 Y20.424 E1.93989
G1 X65.049 Y20.933 E2.13661
G1 X66.037 Y21.082 E2.18646
G1 X70.368 Y22.1 E2.40842
G1 X71.375 Y22.358 E2.46028
G1 X75.602 Y23.832 E2.68362
G1 X76.539 Y24.179 E2.73347
G1 X80.592 Y26.075 E2.95671
G1 X81.397 Y26.465 E3.00133
G1 X85.311 Y28.808 E3.22892
G1 X86.079 Y29.292 E3.27421
G1 X86.592 Y29.663 E3.30579
G1 X89.747 Y32.033 E3.50266
G1 X90.517 Y32.635 E3.55142
G1 X93.819 Y35.685 E3.77568
G1 X94.312 Y36.154 E3.80963
G1 X94.8 Y36.675 E3.84524
G1 X97.509 Y39.761 E4.05011
G1 X98.115 Y40.482 E4.0971
G1 X98.427 Y40.904 E4.12328
G1 X100.729 Y44.145 E4.32161
G1 X101.13 Y44.725 E4.35679
G1 X101.434 Y45.217 E4.38564
G1 X103.513 Y48.884 E4.59595
G1 X103.901 Y49.589 E4.6361
G1 X104.17 Y50.177 E4.66836
G1 X105.793 Y53.899 E4.87093
G1 X106.167 Y54.81 E4.92006
G1 X107.516 Y59.031 E5.14114
G1 X107.728 Y59.73 E5.17759
G1 X107.857 Y60.247 E5.20417
G1 X108.724 Y64.39 E5.41534
G1 X108.908 Y65.365 E5.46484
G1 X109.366 Y69.761 E5.68535
G1 X109.436 Y70.572 E5.72596
G1 X109.464 Y71.156 E5.75513
G1 X109.503 Y72.647 E5.82954
G1 X109.513 Y73.458 E5.87001
G1 X109.467 Y75.473 E5.97056
G1 X109.432 Y76.265 E6.01011
G1 X109.382 Y76.852 E6.0395
G1 X108.981 Y80.71 E6.23302
G1 X108.863 Y81.708 E6.28315
G1 X108.631 Y83.016 E6.34943
G1 X108.453 Y83.928 E6.39579
G1 X107.92 Y86.255 E6.51489
G1 X107.701 Y87.132 E6.55999
G1 X107.494 Y87.809 E6.5953
G1 X106.363 Y91.342 E6.78038
G1 X106.119 Y92.067 E6.81854
G1 X105.926 Y92.561 E6.845
G1 X104.226 Y96.454 E7.05694
G1 X103.945 Y97.072 E7.09081
G1 X103.622 Y97.689 E7.12555
G1 X101.617 Y101.224 E7.3283
G1 X101.106 Y102.085 E7.37826
G1 X98.525 Y105.717 E7.60055
G1 X98.121 Y106.269 E7.63468
G1 X97.778 Y106.692 E7.66185
G1 X94.982 Y109.883 E7.87351
G1 X94.345 Y110.588 E7.92092
G1 X90.991 Y113.693 E8.14895
G1 X90.238 Y114.36 E8.19913
G1 X86.636 Y117.066 E8.4239
G1 X85.925 Y117.574 E8.46749
G1 X85.416 Y117.892 E8.49744
G1 X82.069 Y119.897 E8.69209
G1 X81.137 Y120.432 E8.7457
G1 X77.091 Y122.325 E8.96856
G1 X76.182 Y122.728 E9.01816
G1 X71.982 Y124.191 E9.24005
G1 X71.096 Y124.478 E9.28652
G1 X70.535 Y124.622 E9.31541
G1 X66.647 Y125.538 E9.5147
G1 X65.755 Y125.735 E9.56027
G1 X61.26 Y126.321 E9.78642
G1 X60.309 Y126.423 E9.83414
G1 X59.729 Y126.448 E9.8631
G1 X55.761 Y126.545 E10.06113
G1 X55.047 Y126.553 E10.09675
G1 X54.491 Y126.531 E10.12451
G1 X50.294 Y126.207 E10.33452
G1 X49.272 Y126.106 E10.38576
G1 X44.866 Y125.305 E10.60918
G1 X44.026 Y125.132 E10.65197
G1 X43.479 Y124.984 E10.68024
G1 X39.648 Y123.866 E10.87934
G1 X38.676 Y123.562 E10.93015
G1 X34.581 Y121.9 E11.15064
G1 X33.602 Y121.481 E11.20376
G1 X29.665 Y119.383 E11.42633
G1 X29.035 Y119.036 E11.46221
G1 X28.404 Y118.64 E11.49938
G1 X25.088 Y116.407 E11.69883
G1 X24.254 Y115.822 E11.74965
G1 X20.874 Y113.005 E11.96917
G1 X20.269 Y112.486 E12.00894
G1 X19.782 Y112.018 E12.04263
G1 X16.934 Y109.096 E12.2462
G1 X16.309 Y108.424 E12.29199
G1 X15.95 Y107.99 E12.32009
G1 X13.459 Y104.841 E12.5204
G1 X13.038 Y104.293 E12.55488
G1 X12.657 Y103.736 E12.58855
G1 X10.45 Y100.263 E12.79384
G1 X10.087 Y99.672 E12.82845
G1 X9.825 Y99.197 E12.85551
G1 X7.936 Y95.426 E13.06593
G1 X7.567 Y94.659 E13.10839
G1 X7.32 Y94.032 E13.14201
G1 X5.926 Y90.327 E13.33951
G1 X5.684 Y89.653 E13.37524
G1 X5.533 Y89.155 E13.4012
G1 X4.449 Y85.047 E13.61316
G1 X4.214 Y84.075 E13.66305
G1 X3.52 Y79.627 E13.88765
G1 X3.393 Y78.701 E13.93428
G1 X3.161 Y74.244 E14.15694
G1 X3.133 Y73.491 E14.19454
G1 X3.14 Y72.946 E14.22173
G1 X3.355 Y68.701 E14.43378
G1 X3.402 Y67.996 E14.46903
G1 X3.495 Y67.271 E14.5055
G1 X4.121 Y63.288 E14.70665
G1 X4.239 Y62.592 E14.74187
G1 X4.359 Y62.056 E14.76927
G1 X5.436 Y57.967 E14.98023
G1 X5.704 Y57.029 E15.0289
G1 X7.263 Y52.878 E15.25012
G1 X7.618 Y51.995 E15.2976
G1 X7.855 Y51.496 E15.32516
G1 X9.638 Y47.935 E15.52385
G1 X9.975 Y47.284 E15.56042
G1 X10.249 Y46.815 E15.58752
G1 X12.517 Y43.242 E15.79865
G1 X12.901 Y42.656 E15.83361
G1 X13.377 Y42.02 E15.87324
G1 X15.842 Y38.911 E16.07119
G1 X16.309 Y38.339 E16.10803
G1 X16.697 Y37.91 E16.13689
G1 X19.595 Y34.935 E16.34409
G1 X20.299 Y34.245 E16.39327
G1 X20.685 Y33.912 E16.4187
G1 X23.756 Y31.353 E16.61814
G1 X24.531 Y30.733 E16.66765
G1 F1500 E10.16765
;MESH:Volkswagen Logo Amblem.STL
G0 F3600 X30.192 Y29.976
G0 X30.798 Y30.875
G0 X56.321 Y31.44
G0 X60.631 Y31.663
G0 X64.895 Y32.326
G0 X69.511 Y33.555
G0 X69.494 Y33.664
;TYPE:WALL-INNER
G1 F1500 E16.66765
G1 F1800 X69.492 Y34.018 E16.68531
G1 X56.868 Y62.379 E18.23409
G1 X56.746 Y62.518 E18.24332
G1 X56.454 Y62.657 E18.25945
G1 X56.188 Y62.657 E18.27272
G1 X55.897 Y62.518 E18.28881
G1 X55.769 Y62.368 E18.29865
G1 X43.175 Y34.084 E19.84331
G1 X43.125 Y33.89 E19.8533
G1 X43.173 Y33.599 E19.86802
G1 X43.272 Y33.443 E19.87723
G1 X43.5 Y33.277 E19.8913
G1 X47.684 Y32.176 E20.10715
G1 X52.025 Y31.5 E20.32633
G1 X56.352 Y31.281 E20.54249
G1 X60.665 Y31.504 E20.75795
G1 X64.899 Y32.163 E20.97173
G1 X69.117 Y33.271 E21.1893
G1 X69.342 Y33.412 E21.20255
G1 X69.494 Y33.664 E21.21723
G0 F3600 X69.9 Y33.845
G0 X96.539 Y82.293
G0 X96.969 Y81.868
G1 F1800 X96.679 Y81.78 E21.23235
G1 X96.544 Y81.668 E21.2411
G1 X96.444 Y81.513 E21.25031
G1 X77.098 Y38.05 E23.62379
G1 X77.079 Y37.794 E23.6366
G1 X77.125 Y37.634 E23.6449
G1 X77.247 Y37.456 E23.65567
G1 X77.462 Y37.296 E23.66904
G1 X77.626 Y37.244 E23.67762
G1 X77.992 Y37.29 E23.69603
G1 X81.817 Y39.878 E23.92643
G1 X85.373 Y42.91 E24.15958
G1 X88.586 Y46.334 E24.39383
G1 X91.387 Y50.081 E24.62723
G1 X93.76 Y54.124 E24.86111
G1 X95.686 Y58.451 E25.09741
G1 X97.103 Y62.928 E25.33169
G1 X98.01 Y67.515 E25.56496
G1 X98.405 Y72.163 E25.79769
G1 X98.279 Y76.856 E26.03191
G1 X97.645 Y81.396 E26.26061
G1 X97.568 Y81.5Z82 E26.27065
G1 X97.441 Y81.724 E26.28016
G1 X97.214 Y81.84 E26.29287
G1 X96.969 Y81.868 E26.30518
G0 F3600 X97.029 Y82.293
G0 X92.932 Y94.683
G0 X90.443 Y98.449
G0 X87.86 Y101.629
G0 X84.982 Y104.546
G0 X81.836 Y107.17
G0 X77.66 Y110.001
G0 X55.032 Y122.463
G0 X55.025 Y122.762
G1 F1800 X60.119 Y122.636 E26.5594
G1 X65.181 Y121.978 E26.81406
G1 X70.137 Y120.811 E27.06808
G1 X74.927 Y119.141 E27.32116
G1 X79.535 Y116.984 E27.575
G1 X83.893 Y114.372 E27.82848
G1 X87.96 Y111.318 E28.08222
G1 X91.705 Y107.855 E28.3367
G1 X95.076 Y104.011 E28.59177
G1 X98.005 Y99.889 E28.84405
G1 X100.508 Y95.475 E29.09721
G1 X102.538 Y90.822 E29.35048
G1 X104.071 Y86.033 E29.60135
G1 X104.781 Y82.959 E29.75875
G1 X105.13 Y80.994 E29.85832
G1 X105.652 Y75.966 E30.11051
G1 X105.72 Y73.379 E30.23962
G1 X105.652 Y70.788 E30.36893
G1 X105.131 Y65.775 E30.62038
G1 X104.092 Y60.806 E30.87364
G1 X102.542 Y55.951 E31.12791
G1 X100.506 Y51.283 E31.38198
G1 X98.005 Y46.873 E31.63492
G1 X95.076 Y42.75 E31.88723
G1 X91.698 Y38.9 E32.14277
G1 X87.96 Y35.444 E32.39675
G1 X83.892 Y32.389 E32.65056
G1 X79.533 Y29.776 E32.90411
G1 X74.927 Y27.621 E33.15781
G1 X70.143 Y25.951 E33.41061
G1 X65.187 Y24.785 E33.66462
G1 X60.118 Y24.125 E33.91965
G1 X55.052 Y23.998 E34.17247
G1 X49.972 Y24.392 E34.42667
G1 X44.981 Y25.297 E34.67974
G1 X40.09 Y26.723 E34.93391
G1 X39.576 Y26.904 E34.96109
G1 X35.379 Y28.642 E35.18773
G1 X30.888 Y31.034 E35.44158
G1 X26.676 Y33.868 E35.69486
G1 X22.771 Y37.122 E35.94845
G1 X19.235 Y40.748 E36.20113
G1 X16.054 Y44.762 E36.45665
G1 X13.328 Y49.054 E36.71032
G1 X11.046 Y53.611 E36.96458
G1 X9.265 Y58.353 E37.2173
G1 X7.985 Y63.211 E37.46794
G1 X7.181 Y68.292 E37.72458
G1 X6.922 Y73.384 E37.97895
G1 X7.184 Y78.465 E38.23278
G1 X7.972 Y83.519 E38.48797
G1 X9.265 Y88.409 E38.74032
G1 X11.049 Y93.156 E38.99332
G1 X13.324 Y97.7 E39.24685
G1 X16.057 Y102 E39.50104
G1 X19.219 Y105.995 E39.75523
G1 X22.764 Y109.63 E40.00854
G1 X26.676 Y112.894 E40.26272
G1 X30.873 Y115.72 E40.51515
G1 X35.377 Y118.122 E40.76982
G1 X40.096 Y120.038 E41.02391
G1 X44.988 Y121.467 E41.27818
G1 X49.972 Y122.369 E41.53087
G1 X55.025 Y122.762 E41.78373
G0 F3600 X55.032 Y122.463
G0 X42.575 Y113.474
G0 X42.854 Y112.667
G0 X43.126 Y112.788
G1 F1800 X55.743 Y84.452 E43.33122
G1 X55.963 Y84.194 E43.34814
G1 X56.188 Y84.105 E43.36021
G1 X56.454 Y84.105 E43.37348
G1 X56.745 Y84.244 E43.38957
G1 X56.868 Y84.382 E43.39879
G1 X69.485 Y112.721 E44.94642
G1 X69.516 Y112.985 E44.95968
G1 X69.455 Y113.195 E44.97059
G1 X69.342 Y113.35 E44.98016
G1 X69.15 Y113.484 E44.99185
G1 X64.944 Y114.59 E45.20882
G1 X60.665 Y115.258 E45.42488
G1 X56.29 Y115.481 E45.64344
G1 X52.009 Y115.261 E45.8573
G1 X47.729 Y114.596 E46.07339
G1 X43.555 Y113.499 E46.2887
G1 X43.39 Y113.422 E46.29779
G1 X43.229 Y113.263 E46.30908
G1 X43.143 Y113.077 E46.3193
G1 X43.126 Y112.788 E46.33374
G0 F3600 X42.854 Y112.667
G0 X34.982 Y110.001
G0 X34.225 Y109.574
G0 X34.393 Y109.328
G1 F1800 X30.97 Y106.993 E46.54047
G1 X27.805 Y104.352 E46.74612
G1 X24.944 Y101.451 E46.9494
G1 X22.374 Y98.281 E47.15299
G1 X20.091 Y94.834 E47.35926
G1 X20.06 Y94.556 E47.37322
G1 X20.11 Y94.358 E47.38341
G1 X39.668 Y50.432 E49.7823
G1 X39.774 Y50.272 E49.79187
G1 X39.916 Y50.157 E49.80099
G1 X40.145 Y50.081 E49.81303
G1 X40.498 Y50.119 E49.83074
G1 X40.65 Y50.207 E49.8395
G1 X40.792 Y50.361 E49.84995
G1 X50.183 Y71.442 E51.00132
G1 X62.466 Y71.441 E51.61412
G1 X71.85 Y50.363 E52.76522
G1 X71.993 Y50.208 E52.77574
G1 X72.144 Y50.119 E52.78448
G1 X72.497 Y50.081 E52.8022
G1 X72.801 Y50.208 E52.81863
G1 X72.943 Y50.36 E52.82901
G1 X92.533 Y94.358 E55.23183
G1 X92.585 Y94.587 E55.24355
G1 X92.507 Y94.9 E55.25964
G1 X90.258 Y98.297 E55.46289
G1 X87.684 Y101.468 E55.66665
G1 X84.823 Y104.365 E55.86979
G1 X81.687 Y106.983 E56.0736
G1 X78.32 Y109.279 E56.27692
G1 X78.16 Y109.346 E56.28557
G1 X77.961 Y109.362 E56.29553
G1 X77.751 Y109.305 E56.30639
G1 X77.559 Y109.159 E56.31842
G1 X77.462 Y109.008 E56.32737
G1 X62.464 Y75.319 E58.16716
G1 X50.178 Y75.32 E58.78011
G1 X35.152 Y109.071 E60.62329
G1 X35.028 Y109.214 E60.63273
G1 X34.862 Y109.318 E60.6425
G1 X34.677 Y109.362 E60.65199
G1 X34.393 Y109.328 E60.66626
G0 F3600 X34.225 Y109.574
G0 X30.806 Y107.17
G0 X27.66 Y104.546
G0 X24.782 Y101.629
G0 X22.2 Y98.449
G0 X19.711 Y94.683
G0 X15.75 Y82.311
G0 X15.817 Y81.845
G1 F1800 X15.436 Y81.841 E60.68527
G1 X15.277 Y81.776 E60.69384
G1 X15.128 Y81.651 E60.70354
G1 X15 Y81.429 E60.71633
G1 X14.361 Y76.824 E60.94827
G1 X14.239 Y72.158 E61.18114
G1 X14.64 Y67.456 E61.41657
G1 X15.547 Y62.892 E61.64873
G1 X16.968 Y58.421 E61.88278
G1 X18.857 Y54.176 E62.11459
G1 X21.239 Y50.107 E62.34982
G1 X24.032 Y46.364 E62.58281
G1 X27.241 Y42.939 E62.81697
G1 X30.838 Y39.869 E63.0529
G1 X34.633 Y37.306 E63.28137
G1 X34.922 Y37.236 E63.2962
G1 X35.247 Y37.335 E63.31315
G1 X35.476 Y37.559 E63.32914
G1 X35.551 Y37.733 E63.33859
G1 X35.544 Y38.05 E63.35441
G1 X16.168 Y81.583 E65.73169
G1 X16.035 Y81.73 E65.74158
G1 X15.817 Y81.845 E65.75388
G0 F3600 X15.75 Y82.311
G0 X19.711 Y94.683
G0 X22.2 Y98.449
G0 X24.782 Y101.629
G0 X27.66 Y104.546
G0 X30.491 Y106.907
G0 X34.187 Y109.548
G0 X34.582 Y108.97
;TYPE:WALL-OUTER
G1 F1800 X31.187 Y106.656 E65.95886
G1 X28.084 Y104.065 E66.16054
G1 X25.254 Y101.199 E66.36148
G1 X22.718 Y98.074 E66.56227
G1 X20.469 Y94.679 E66.76544
G1 X20.457 Y94.565 E66.77116
G1 X40.034 Y50.595 E69.17244
G1 X40.116 Y50.503 E69.17859
G1 X40.324 Y50.482 E69.18902
G1 X40.438 Y50.55 E69.19564
G1 X49.926 Y71.842 E70.35859
G1 X62.726 Y71.841 E70.99719
G1 X72.185 Y50.595 E72.15746
G1 X72.267 Y50.503 E72.16361
G1 X72.475 Y50.482 E72.17404
G1 X72.589 Y50.55 E72.18066
G1 X92.18 Y94.56 E74.58405
G1 X92.159 Y94.702 E74.59121
G1 X89.924 Y98.076 E74.79312
G1 X87.375 Y101.213 E74.99478
G1 X84.544 Y104.078 E75.19573
G1 X81.447 Y106.663 E75.39699
G1 X78.094 Y108.946 E75.59936
G1 X77.924 Y108.944 E75.60784
G1 X77.843 Y108.874 E75.61318
G1 X62.721 Y74.919 E77.46761
G1 X49.918 Y74.919 E78.10635
G1 X34.812 Y108.849 E79.95931
G1 X34.746 Y108.928 E79.96445
G1 X34.582 Y108.97 E79.9729
G0 F3600 X34.417 Y108.858
G0 X34.022 Y109.436
G0 X34.982 Y110.001
G0 X42.575 Y113.474
G0 X43.397 Y113.766
G0 X43.582 Y113.065
G1 F1800 X43.524 Y112.88 E79.98257
G1 X56.125 Y84.579 E81.52814
G1 X56.257 Y84.499 E81.53584
G1 X56.46 Y84.529 E81.54608
G1 X56.533 Y84.615 E81.55171
G1 X69.119 Y112.88 E83.09534
G1 X69.082 Y113.041 E83.10358
G1 X69.004 Y113.105 E83.10862
G1 X64.837 Y114.203 E83.3236
G1 X60.613 Y114.861 E83.53688
G1 X56.31 Y115.081 E83.75184
G1 X52.04 Y114.862 E83.96515
G1 X47.786 Y114.199 E84.17995
G1 X43.667 Y113.115 E84.39244
G1 X43.582 Y113.065 E84.39736
G0 F3600 X43.524 Y112.88
G0 X43.526 Y112.874
G0 X42.888 Y112.59
G0 X42.575 Y113.474
G0 X55.032 Y122.463
G0 X55.015 Y123.162
G1 F1800 X60.15 Y123.036 E84.65362
G1 X65.253 Y122.372 E84.91036
G1 X70.249 Y121.195 E85.16643
G1 X75.078 Y119.512 E85.42157
G1 X79.723 Y117.338 E85.67743
G1 X84.117 Y114.704 E85.93302
G1 X88.216 Y111.626 E86.18876
G1 X91.992 Y108.135 E86.44532
G1 X95.39 Y104.259 E86.70248
G1 X98.343 Y100.104 E86.9568
G1 X100.866 Y95.654 E87.21201
G1 X102.913 Y90.963 E87.46735
G1 X104.457 Y86.139 E87.72005
G1 X105.173 Y83.039 E87.87878
G1 X105.526 Y81.05 E87.97956
G1 X106.052 Y75.992 E88.23327
G1 X106.12 Y73.379 E88.36368
G1 X106.052 Y70.762 E88.49428
G1 X105.527 Y65.713 E88.74754
G1 X104.48 Y60.704 E89.00284
G1 X102.917 Y55.81 E89.25915
G1 X100.864 Y51.104 E89.5153
G1 X98.343 Y46.658 E89.77029
G1 X95.39 Y42.502 E90.02465
G1 X91.985 Y38.62 E90.28227
G1 X88.216 Y35.136 E90.53833
G1 X84.116 Y32.057 E90.79414
G1 X79.721 Y29.422 E91.0498
G1 X75.078 Y27.25 E91.30553
G1 X70.255 Y25.567 E91.56038
G1 X65.259 Y24.391 E91.81644
G1 X60.149 Y23.725 E92.07354
G1 X55.042 Y23.598 E92.32841
G1 X49.921 Y23.995 E92.58466
G1 X44.889 Y24.907 E92.8398
G1 X39.968 Y26.342 E93.09553
G1 X39.433 Y26.53 E93.12382
G1 X35.208 Y28.28 E93.35198
G1 X30.682 Y30.69 E93.60779
G1 X26.436 Y33.548 E93.86315
G1 X22.499 Y36.828 E94.1188
G1 X18.934 Y40.484 E94.37356
G1 X15.728 Y44.53 E94.6311
G1 X12.98 Y48.857 E94.88683
G1 X10.679 Y53.451 E95.14317
G1 X8.883 Y58.231 E95.39792
G1 X7.593 Y63.129 E95.65062
G1 X6.783 Y68.25 E95.90928
G1 X6.522 Y73.384 E96.16575
G1 X6.786 Y78.506 E96.42163
G1 X7.58 Y83.601 E96.67889
G1 X8.883 Y88.531 E96.93329
G1 X10.682 Y93.316 E97.18833
G1 X12.976 Y97.897 E97.44393
G1 X15.731 Y102.232 E97.70019
G1 X18.918 Y106.259 E97.9564
G1 X22.492 Y109.924 E98.21179
G1 X26.436 Y113.214 E98.46803
G1 X30.667 Y116.063 E98.72251
G1 X35.207 Y118.485 E98.97923
G1 X39.964 Y120.416 E99.23537
G1 X44.896 Y121.857 E99.49171
G1 X49.921 Y122.767 E99.74649
G1 X55.015 Y123.162 E100.00139
G0 F3600 X55.214 Y123.158
G0 X55.198 Y122.458
G0 X34.982 Y110.001
G0 X30.806 Y107.17
G0 X27.66 Y104.546
G0 X24.782 Y101.629
G0 X22.2 Y98.449
G0 X19.711 Y94.683
G0 X39.705 Y49.778
G0 X40.786 Y49.778
G0 X49.536 Y61.923
